!!!COM: Palestrina, Giovanni Perluigi da
!!!OPR: Missa O admirabile commercium
!!!OMD: Credo
!!!OTL: First Section
**kern	**kern	**kern	**kern	**kern
*Ibass	*Itenor	*Itenor	*Icalto	*Icant
!Bassus	!Tenor 2	!Tenor 1	!Altus	!Cantus
*clefF4	*clefGv2	*clefGv2	*clefG2	*clefG2
*k[]	*k[]	*k[]	*k[]	*k[]
*G:mix	*G:mix	*G:mix	*G:mix	*G:mix
*M4/2	*M4/2	*M4/2	*M4/2	*M4/2
=1	=1	=1	=1	=1
0r	0G	1r	1.b	[0dd
.	.	[1g	.	.
.	.	.	4a	.
.	.	.	4g	.
=2	=2	=2	=2	=2
0r	0d	2g]	0a	0dd]
.	.	4f#	.	.
.	.	4e	.	.
.	.	1f#	.	.
=3	=3	=3	=3	=3
0r	1G	1g	1b	1dd
.	1G	1g	1b	1dd
=4	=4	=4	=4	=4
0r	1.c	2g	1.cc	1.ee
.	.	4c	.	.
.	.	4d	.	.
.	.	4e	.	.
.	.	4f	.	.
.	2G	[2g	2b	2dd
=5	=5	=5	=5	=5
0r	0c	2g]	1.cc	0ee
.	.	1a	.	.
.	.	[2g	2b	.
=6	=6	=6	=6	=6
0D	1d	2g]	1a	1dd
.	.	4f#	.	.
.	.	4e	.	.
.	1d	2f#	2r	2r
.	.	2f#	2a	2dd
=7	=7	=7	=7	=7
1G	2B	1g	1b	1dd
.	4G	.	.	.
.	4A	.	.	.
1G	4B	1g	1b	1dd
.	4c	.	.	.
.	2d	.	.	.
=8	=8	=8	=8	=8
1C	1c	1e	1cc	1ee
1G	1d	2g	1b	1dd
.	.	2g	.	.
=9	=9	=9	=9	=9
1C	1e	4g	1g	1cc
.	.	4f	.	.
.	.	4e	.	.
.	.	4d	.	.
1F	1f	2c	1a	1cc
.	.	2c	.	.
=10	=10	=10	=10	=10
0G	1d	2r	2g	2b
.	.	1g	1b	1dd
.	1r	.	.	.
.	.	2g	2b	2dd
=11	=11	=11	=11	=11
0r	0r	2c	2cc	2ee
.	.	2g	2b	2dd
.	.	2c	2cc	2ee
.	.	[2f	[2a	[2cc
=12	=12	=12	=12	=12
0r	1r	2f]	2a]	2cc]
.	.	2g	2g	2b
.	2r	1d	4f#	1a
.	.	.	4g	.
.	[2d	.	4a	.
.	.	.	4f#	.
=13	=13	=13	=13	=13
1.G	2d]	1.B	0g	0r
.	2d	.	.	.
.	[1e	.	.	.
2G	.	2B	.	.
=14	=14	=14	=14	=14
2A	2e]	2c	0r	1.ee
2G	2e	2B	.	.
2.A	1e	2.c	.	.
.	.	.	.	2cc
4G	.	4B	.	.
=15	=15	=15	=15	=15
2F	2d	2A	0r	2dd
2E	2.c	2G	.	2ee
1D	.	1F	.	2.ff
.	4B	.	.	.
.	4B	.	.	.
.	8A	.	.	4ff
.	8B	.	.	.
=16	=16	=16	=16	=16
1C	1c	2r	1.g	2ee
.	.	1c	.	1ee
1r	1r	.	.	.
.	.	2c	2a	2ee
=17	=17	=17	=17	=17
0r	0r	2g	2b	2dd
.	.	2e	2g	2ee
.	.	2f	2a	2cc
.	.	2d	2b	2dd
=18	=18	=18	=18	=18
1r	2r	1c	1cc	1ee
.	2.g	.	.	.
[1c	.	[1g	[1cc	[1ee
.	4f	.	.	.
.	[2e	.	.	.
=19	=19	=19	=19	=19
1c]	4e]	1g]	1cc]	1ee]
.	4d	.	.	.
.	2c	.	.	.
1G	2d	1g	1b	2dd
.	[2e	.	.	4cc
.	.	.	.	4b
=20	=20	=20	=20	=20
0A	2e]	0e	2.a	1cc
.	1c	.	.	.
.	.	.	4b	.
.	.	.	1cc	1a
.	2A	.	.	.
=21	=21	=21	=21	=21
2E	2B	2e	2b	1g
2E	2c	2e	2g	.
2F	2A	2d	2a	2r
2G	2G	2d	[2b	2g
=22	=22	=22	=22	=22
1E	0r	1G	4b]	2b
.	.	.	4a	.
.	.	.	1g	2cc
1D	.	1A	.	1dd
.	.	.	2f#	.
=23	=23	=23	=23	=23
1r	2r	1G	1g	1b
.	2d	.	.	.
1A	2e	1r	1a	1cc
.	2f	.	.	.
=24	=24	=24	=24	=24
2B	2d	2.g	4g	2dd
.	.	.	4f	.
1c	2c	.	4e	2.ee
.	.	4f	4d	.
.	2g	2e	4c	.
.	.	.	4B	4dd
2F	2a	2f	2A	[2cc
=25	=25	=25	=25	=25
0G	1.g	1.d	2B	2cc]
.	.	.	2G	4b
.	.	.	.	4a
.	.	.	1g	2b
.	2d	2d	.	2b
=26	=26	=26	=26	=26
2r	2e	1c	2r	0cc
1c	1e	.	1g	.
.	.	1r	.	.
2A	2f	.	2a	.
=27	=27	=27	=27	=27
2c	2e	0r	2g	0r
2B	2d	.	2g	.
1A	2e	.	1cc	.
.	2f#	.	.	.
=28	=28	=28	=28	=28
1G	1g	2r	2b	2r
.	.	1g	1b	1dd
1r	1r	.	.	.
.	.	2e	2cc	2ee
=29	=29	=29	=29	=29
0r	0r	2g	2b	2dd
.	.	2f	2a	2dd
.	.	4e	2b	4gg
.	.	4d	.	4ff
.	.	4c	[2cc	4ee
.	.	4B	.	4dd
=30	=30	=30	=30	=30
0r	0r	1A	4cc]	4ee
.	.	.	4b	4dd
.	.	.	1a	2cc
.	.	2e	.	2.b
.	.	2e	2g#	.
.	.	.	.	4b
=31	=31	=31	=31	=31
2r	2r	2A	1a	2a
2F	2a	2c	.	2ff
2A	2a	2c	1r	2ff
2c	2g	2c	.	2ee
=32	=32	=32	=32	=32
1B	1g	1G	1r	1dd
1c	2e	2g	2r	2cc
.	2e	2c	2g	2cc
=33	=33	=33	=33	=33
0r	2c	2e	2g	2cc
.	2e	2g	2g	2b
.	2.d	2.f#	2.a	2.dd
.	4d	4f#	4a	4dd
=34	=34	=34	=34	=34
2r	2G	2g	1b	1dd
1G	1B	1d	.	.
.	.	.	1r	1r
2E	2c	2e	.	.
=35	=35	=35	=35	=35
1D	1.d	1f	1r	1r
1A	.	1e	2r	2r
.	2c	.	2a	2a
=36	=36	=36	=36	=36
1A	2r	2r	2a	2.cc
.	2a	2A	2f	.
.	.	.	.	4dd
2A	2a	2c	4e	2ee
.	.	.	4A	.
2D	2f	2d	[2a	[2dd
=37	=37	=37	=37	=37
1A	1e	2e	4a]	2dd]
.	.	.	4g	.
.	.	1A	2e	2cc#
2D	1d	.	2f	1dd
[2d	.	[2f	[2a	.
=38	=38	=38	=38	=38
2d]	1A	2f]	2a]	0r
2c#	.	2e	2a	.
2d	1r	2f	2a	.
2B	.	2d	2g	.
=39	=39	=39	=39	=39
2c#	1r	2e	1a	1r
2d	.	2f#	.	.
1G	2r	2.g	2b	2r
.	[2g	.	[2b	[2dd
.	.	8f	.	.
.	.	8e	.	.
=40	=40	=40	=40	=40
0r	2g]	1d	2b]	2dd]
.	2f#	.	2a	2dd
.	2g	1r	2b	2dd
.	2e	.	2g	2cc
=41	=41	=41	=41	=41
0r	2f#	1r	2a	2dd
.	2g	.	2b	2dd
.	1c	2r	1cc	1ee
.	.	[2g	.	.
=42	=42	=42	=42	=42
1r	1d	2g]	1a	0dd
.	.	2f#	.	.
[1G	[1B	2.g	2r	.
.	.	.	[2g	.
.	.	8f	.	.
.	.	8e	.	.
=43	=43	=43	=43	=43
2G]	2B]	1d	2g]	2r
2F#	2A	.	2a	1dd
2G	2B	2d	2.g	.
2E	2c	[2c	.	2ee
.	.	.	4g	.
=44	=44	=44	=44	=44
2F#	2A	2c]	2a	2.dd
1G	4G	4B	1b	.
.	4A	4A	.	4dd
.	4B	2G	.	1dd
.	4c	.	.	.
2F	[2d	2A	[2a	.
=45	=45	=45	=45	=45
1E	2d]	2B	4a]	1g
.	.	.	4g	.
.	2c#	4A	1g	.
.	.	4G	.	.
1D	[1d	1A	.	2dd
.	.	.	2f#	2dd
=46	=46	=46	=46	=46
2r	2d]	2G	1g	1b
2G	2B	2d	.	.
2C	2c	2e	1r	1r
2D	2A	2f	.	.
=47	=47	=47	=47	=47
1E	1G	2g	0r	0r
.	.	1e	.	.
2C	2.c	.	.	.
2C	.	2e	.	.
.	4c	.	.	.
=48	=48	=48	=48	=48
1G	1B	2d	2r	2r
.	.	2g	2b	2dd
1r	1r	2c	2cc	2ee
.	.	2d	2a	2ff
=49	=49	=49	=49	=49
0r	2r	1e	1g	1gg
.	2g	.	.	.
.	2c	2e	2g	2ee
.	2d	2B	2g	2dd
=50	=50	=50	=50	=50
0r	2e	2.c	0a	0cc
.	2e	.	.	.
.	.	4B	.	.
.	2e	1A	.	.
.	2f#	.	.	.
=51	=51	=51	=51	=51
1r	2g	1G	1d	1b
.	1g	.	.	.
1c	.	1g	1r	1ee
.	[2e	.	.	.
=52	=52	=52	=52	=52
1A	2e]	2a	1r	1cc
.	1c	2e	.	.
[1F	.	2.f	1cc	[1a
.	2A	.	.	.
.	.	8e	.	.
.	.	8d	.	.
=53	=53	=53	=53	=53
2F]	0f	4c	1a	2a]
.	.	4A	.	.
2D	.	2d	.	2f
[1F	.	2.c	2f	[1a
.	.	.	2c	.
.	.	4B	.	.
=54	=54	=54	=54	=54
1F]	0c	4A	1f	1a]
.	.	4G	.	.
.	.	2F	.	.
1C	.	1G	1e	1g
=55	=55	=55	=55	=55
1r	1r	1r	1r	1r
1C	1c	1e	1g	1cc
=56	=56	=56	=56	=56
1G	1B	1d	1g	1dd
1C	1c	1g	1e	1ee
=57	=57	=57	=57	=57
1F	1A	2.c	1a	1ff
.	.	4d	.	.
1C	1c	2e	1g	1ee
.	.	2c	.	.
=58	=58	=58	=58	=58
1G	2B	2d	2g	2dd
.	2G	2g	2b	2dd
1r	[1d	2g	2b	[1dd
.	.	4f#	4a	.
.	.	4e	4g	.
=59	=59	=59	=59	=59
0r	2d]	2f#	2a	2dd]
.	2G	2g	2b	2dd
.	1g	2c	2.cc	2ee
.	.	4c	.	[2ee
.	.	4d	4b	.
=60	=60	=60	=60	=60
0r	0r	4e	4g	2ee]
.	.	4f#	4a	.
.	.	2.g	2.b	4dd
.	.	.	.	4cc
.	.	.	.	4dd
.	.	4a	4a	4cc
.	.	2f	[2a	4cc
.	.	.	.	8b
.	.	.	.	8a
=61	=61	=61	=61	=61
1r	1r	2.e	2a]	1b
.	.	.	2g#	.
.	.	4d	.	.
2r	2r	2c	1a	1a
[2d	[2f	2d	.	.
=62	=62	=62	=62	=62
2d]	2f]	1A	1.a	2r
4c#	4e	.	.	1ee
4B	4d	.	.	.
2c#	2e	2r	.	.
2d	2f#	2d	2a	2dd
=63	=63	=63	=63	=63
1G	1g	2d	1b	1dd
.	.	1g	.	.
1G	1d	.	1b	1dd
.	.	2g	.	.
=64	=64	=64	=64	=64
1c	4c	1e	1cc	1ee
.	4d	.	.	.
.	4e	.	.	.
.	4f	.	.	.
1C	2g	1c	1cc	1ee
.	2g	.	.	.
=65	=65	=65	=65	=65
1G	1g	1d	1b	1dd
1C	1e	1c	1g	1ee
=66	=66	=66	=66	=66
1F	1f	1A	1a	1cc
1G	1d	1B	2g	1b
.	.	.	[2g	.
=67	=67	=67	=67	=67
1D	1d	1A	2g]	1dd
.	.	.	4f#	.
.	.	.	4e	.
1D	1d	1A	2f#	1a
.	.	.	2f#	.
=68	=68	=68	=68	=68
0G	0d	0G	0g	0b
*-	*-	*-	*-	*-
!!!CDT: 1525/^1526/-1594/2/2
!!!OCY: Italia
!!!AGN: Mass (Parody)
!!!AST: renaissance, vocal
!!!ASW: Motet 1569 (Palestrina)
!!!PWK: Masses, Book 8
!!!RNB: Cadence finals: C,D
!!!YOR: Le Opere Complete, v. 24, p. 52
!!!YOO: Rome, Italy: Fratelli Scalera
!!!END: 1992//
!!!EED: John Miller
!!!YEC: Copyright 2000, John Miller
!!!YEN: United States of America
!!!YEM: Rights to all derivative electronic formats reserved.
!!!YEM: Refer to licensing agreement for further details.
!!!YEM: This file must be accompanied by the licensing agreement.
!!!YEM: A copy of the licensing agreement may be found at http://www.music-cog.ohio-state.edu/HumdrumDatabases/Palestrina/license.txt
!!!EMD: converted to Humdrum by Bret Aarden
